X:107
T:Cherish the Ladies
R:jig
D:Paddy Glackin: Ceol ar an bhFidil le Paddy Glackin
Z:id:hn-jig-107
M:6/8
K:D
dFF AFE | DFA AFA | BEE GFE | FDF ABc |
dFF AFE | DFA AFA | Bcd efg |1 fdc d2c :|2 fdc d2A ||
|: dfd cec | dcd AFA | BEE GFE | FDF ABc |
dfd cec | dcd AFA | Bcd efg | fdc d2A :|
|: ~d3 fed | afd fed | ~B3 ~g3 | ece gfe |
[1 dcd fed | afd gbg | fdB AGF | GEF GFE :|
[2 ~a3 bgb | afa g2e | fdB AGF | GEF GFE ||
|: ADD AGF | ADD AdB | ADD AGF | GEF GFE |
ADD AGF | ADD AB=c | BGB AFA | GEF GFE :|
|: DFA dAF | DFA BGE | DFA dAF | GAG GFE |
DFA ~d3 | Bcc AB=c | BGB AFA | GEF GFE :|
P:variations
|: dFF AFE | DFA AFA | BEE B,EE | FDF ABc |
dFF AFE | DFA AFA | Bcd e/f/ge |1 fdc d2c :|2 fdc d2A ||
|: dfd cec | ~B3 AFA | BEE GEE | FDF ABc |
dfd cec | ~B3 AFA | Bcd e/f/ge | fdc d2A :|
|: ~d3 fed | afd fed | B2g gfg |1 ece gfe |
dcd fed | afd efg | fdB AGF | GEF GFE :|
[2 ece ~g3 | afa bgb | afa g2e | fdB AGF | GEF GFE ||
|: ADD AGF | ADD A2B | ADD AGF | GEF GFE |
ADD AGF | ADD AB=c | ~B3 AFA | GEF GFE :|
|: DFA dAF | DFA BGE | DFA dAF | ~G3 GFE |
DFA ~d3 | ~c3 AB=c | BGB AFA | GEF GFE :|

